T: Farewell To London
M: 4/4
L: 1/8
K: Gmaj
D2|GB (3BBB c2BA|GABd edBG|AD (3DDD A3c|BcdB cBAF|\GABG FGAF|GABG ABcA|dg (3ggg fgag|fdcA G2::\Bc|dg (3ggg fgaf|gdBG DG,B,G,|CGEC B,DGE|FGAB cABc|\dg (3ggg fgaf|gdBG DG,B,D|CGEC B,DGB|cAFD G2::\Bc|dgfg ec (3ccc|fdfa gd (3ddd|bagf gdBG|AD (3FED ABcA|\dgfg ec (3ccc|fdfa gd (3ddd|(3Bcd gd ceag|1fdcA G2:|2fdcA G3|:B|\(3ddd ba gafd|gdBG DG,B,G,|CGEC B,DGE|FGAB cABc|\(3ddd ba gafd|gdBG DG,B,G,|CGEC B,DGB|cAFD G3:|
